src/assets/outline/RotateLeft.svg

<svg width="24" height="24" viewBox="0 0 24 24"  xmlns="http://www.w3.org/2000/svg">
<path d="M12.0001 22.7499C6.80008 22.7499 2.58008 18.5199 2.58008 13.3299C2.58008 11.4599 3.13008 9.64989 4.17008 8.08989C4.40008 7.74989 4.87008 7.64989 5.21008 7.87989C5.55008 8.10989 5.65008 8.57989 5.42008 8.91989C4.55008 10.2199 4.09008 11.7499 4.09008 13.3199C4.09008 17.6899 7.64008 21.2399 12.0101 21.2399C16.3801 21.2399 19.9301 17.6899 19.9301 13.3199C19.9301 8.94989 16.3701 5.39989 12.0001 5.39989C11.0801 5.39989 10.1801 5.52989 9.33008 5.78989C8.93008 5.90989 8.51008 5.68989 8.39008 5.28989C8.27008 4.88989 8.49008 4.46989 8.89008 4.34989C9.89008 4.04989 10.9301 3.88989 12.0001 3.88989C17.2001 3.88989 21.4201 8.11989 21.4201 13.3099C21.4201 18.4999 17.2001 22.7499 12.0001 22.7499Z" />
<path d="M7.86987 6.07012C7.69987 6.07012 7.51987 6.01012 7.37987 5.89012C7.05987 5.61012 7.02987 5.14012 7.29987 4.83012L10.1899 1.51012C10.4599 1.20012 10.9399 1.16012 11.2499 1.44012C11.5599 1.71012 11.5899 2.19012 11.3199 2.50012L8.42987 5.81012C8.27987 5.98012 8.06987 6.07012 7.86987 6.07012Z" />
<path d="M11.2401 8.52988C11.0901 8.52988 10.9301 8.47988 10.8001 8.38988L7.42008 5.91988C7.09008 5.67988 7.02008 5.20988 7.26008 4.87988C7.50008 4.53988 7.97008 4.46988 8.31008 4.70988L11.6801 7.16988C12.0101 7.40988 12.0901 7.87988 11.8401 8.21988C11.7001 8.42988 11.4701 8.52988 11.2401 8.52988Z" />
</svg>

<?xml version="1.0" encoding="UTF-8"?>
<svg width="24" height="24" viewBox="0 0 24 24" xmlns="http://www.w3.org/2000/svg">
 <path d="m12 22.75c-5.2 0-9.42-4.23-9.42-9.42 0-1.87 0.55-3.68 1.59-5.24 0.23-0.34 0.7-0.44 1.04-0.21s0.44 0.7 0.21 1.04c-0.87 1.3-1.33 2.83-1.33 4.4 0 4.37 3.55 7.92 7.92 7.92 4.37 0 7.92-3.55 7.92-7.92 0-4.37-3.56-7.92-7.93-7.92-0.92 0-1.82 0.13-2.67 0.39-0.4 0.12-0.82-0.1-0.94-0.5s0.1-0.82 0.5-0.94c1-0.3 2.04-0.46 3.11-0.46 5.2 0 9.42 4.23 9.42 9.42 0 5.19-4.22 9.44-9.42 9.44z"/>
 <path d="m7.8699 6.0701c-0.17 0-0.35-0.06-0.49-0.18-0.32-0.28-0.35-0.75-0.08-1.06l2.89-3.32c0.27-0.31 0.75-0.35 1.06-0.07 0.31 0.27 0.34 0.75 0.07 1.06l-2.89 3.31c-0.15 0.17-0.36 0.26-0.56 0.26z"/>
 <path d="m11.24 8.5299c-0.15 0-0.31-0.05-0.44-0.14l-3.38-2.47c-0.33-0.24-0.4-0.71-0.16-1.04 0.24-0.34 0.71-0.41 1.05-0.17l3.37 2.46c0.33 0.24 0.41 0.71 0.16 1.05-0.14 0.21-0.37 0.31-0.6 0.31z"/>
</svg>
